assets/High-speed train/Flat/high-speed_train_flat.svg

<svg width="32" height="32" viewBox="0 0 32 32" fill="none" xmlns="http://www.w3.org/2000/svg">
<path d="M29.98 21H2V24H4V30H7V24H11V30H14V24H17.99V30H20.98V24H24.98V30H27.98V24H29.98V21Z" fill="#D3D3D3"/>
<path d="M29.98 21H9L10.4 22.41C10.78 22.79 11.29 23 11.82 23H29.99V21H29.98Z" fill="#3F5FFF"/>
<path d="M15.09 8.52C15.67 8.18 16.34 8 17.01 8H29.98V21H7.81C5.7 21 4 19.29 4 17.19C4 15.9 4.65 14.7 5.72 14L15.09 8.52Z" fill="#E6E6E6"/>
<path d="M7.80998 21H29.98V19H4.47998C5.11998 20.19 6.36998 21 7.80998 21Z" fill="#46A4FB"/>
<path d="M4.48003 19H29.99V18H4.09003C4.17003 18.36 4.31003 18.69 4.48003 19Z" fill="#26EAFC"/>
<path d="M12.99 17H10.99C10.44 17 9.98999 16.55 9.98999 16C9.98999 15.45 10.44 15 10.99 15H12.99C13.54 15 13.99 15.45 13.99 16C13.99 16.56 13.54 17 12.99 17Z" fill="#FF6723"/>
<path d="M14.28 9H18.04C18.56 9 18.99 9.43 19 9.96V13.05C19 13.57 18.58 14 18.05 14H5.72998C5.74998 13.99 7.60998 12.9 7.60998 12.9L14.28 9ZM22.93 14H29.98V9.01001H22.93C22.41 9.01001 21.98 9.43001 21.98 9.96001V13.05C21.98 13.57 22.4 14 22.93 14Z" fill="#26C9FC"/>
</svg>

<svg xmlns="http://www.w3.org/2000/svg" width="32" height="32" fill="none"><path fill="#D3D3D3" d="M29.98 21H2v3h2v6h3v-6h4v6h3v-6h3.99v6h2.99v-6h4v6h3v-6h2v-3Z"/><path fill="#3F5FFF" d="M29.98 21H9l1.4 1.41c.38.38.89.59 1.42.59h18.17v-2h-.01Z"/><path fill="#E6E6E6" d="M15.09 8.52c.58-.34 1.25-.52 1.92-.52h12.97v13H7.81C5.7 21 4 19.29 4 17.19c0-1.29.65-2.49 1.72-3.19l9.37-5.48Z"/><path fill="#46A4FB" d="M7.81 21h22.17v-2H4.48c.64 1.19 1.89 2 3.33 2Z"/><path fill="#26EAFC" d="M4.48 19h25.51v-1H4.09c.08.36.22.69.39 1Z"/><path fill="#FF6723" d="M12.99 17h-2c-.55 0-1-.45-1-1s.45-1 1-1h2c.55 0 1 .45 1 1 0 .56-.45 1-1 1Z"/><path fill="#26C9FC" d="M14.28 9h3.76c.52 0 .95.43.96.96v3.09c0 .52-.42.95-.95.95H5.73c.02-.01 1.88-1.1 1.88-1.1L14.28 9Zm8.65 5h7.05V9.01h-7.05a.95.95 0 0 0-.95.95v3.09c0 .52.42.95.95.95Z"/></svg>
